dist/svg/u1F492.svg

<?xml version="1.0" encoding="UTF-8"?><svg id="Layer_1" xmlns="http://www.w3.org/2000/svg" viewBox="0 0 40 40"><rect width="40" height="40" style="fill:none;"/><g><rect x="16.37744" y="3.47363" width="7.24512" height="2.07031" style="fill:#d12030;"/><g><rect x="18.96484" y=".64355" width="2.07031" height="10.38574" style="fill:#d12030;"/><g><path d="M6.1573,37.35658h27.68539c1.19145,0,2.1573-.96586,2.1573-2.1573V16.94085H4v18.25843c0,1.19145,.96586,2.1573,2.1573,2.1573Z" style="fill:#cecfcf;"/><path d="M6.1573,13.70489h27.68539c1.19065,0,2.1573,.96666,2.1573,2.1573v1.07865H4v-1.07865c0-1.19065,.96666-2.1573,2.1573-2.1573Z" style="fill:#ff8293;"/><path d="M26.75267,13.70489l-5.98837-6.01322c-.4216-.42335-1.107-.42335-1.5286,0l-5.98837,6.01322v3.23596h13.50533v-3.23596Z" style="fill:#ff8293;"/><path d="M25.67401,16.94085l-5.67401-5.70204-5.67401,5.70204v20.41573h11.34803V16.94085Z" style="fill:#e0e0e0;"/><path d="M19.64862,23.88269c.21351,.14107,.48924,.14107,.70276,0,.67786-.44786,2.15519-1.518,2.79107-2.71549,.83892-1.57986-.14632-3.15569-1.44809-3.15569-.74216,0-1.18881,.38775-1.43567,.72113-.13011,.17571-.38726,.17571-.51737,0-.24686-.33337-.69351-.72113-1.43567-.72113-1.30177,0-2.28701,1.57583-1.44809,3.15569,.63588,1.19749,2.11321,2.26763,2.79107,2.71549Z" style="fill:#ef4452;"/><path d="M20,29.96332h0c1.48831,0,2.69663,1.20832,2.69663,2.69663v4.69663h-5.39326v-4.69663c0-1.48831,1.20832-2.69663,2.69663-2.69663Z" style="fill:#6b7683;"/></g></g></g></svg>

<svg id="Layer_1" data-name="Layer 1" xmlns="http://www.w3.org/2000/svg" viewBox="0 0 40 40"><defs><style>.cls-1,.cls-2{fill:none;}.cls-2{stroke:#d12030;stroke-miterlimit:10;stroke-width:2.07px;}.cls-3{fill:#cecfcf;}.cls-4{fill:#ff8293;}.cls-5{fill:#e0e0e0;}.cls-6{fill:#ef4452;}.cls-7{fill:#6b7683;}</style></defs><rect class="cls-1" width="40" height="40"/><line class="cls-2" x1="16.377" y1="4.509" x2="23.623" y2="4.509"/><line class="cls-2" x1="20" y1="0.643" x2="20" y2="11.029"/><path class="cls-3" d="M6.157,37.357H33.843A2.158,2.158,0,0,0,36,35.2V16.941H4V35.2A2.158,2.158,0,0,0,6.157,37.357Z"/><path class="cls-4" d="M6.157,13.7H33.843A2.157,2.157,0,0,1,36,15.862v1.079a0,0,0,0,1,0,0H4a0,0,0,0,1,0,0V15.862A2.157,2.157,0,0,1,6.157,13.7Z"/><path class="cls-4" d="M26.753,13.705,20.764,7.692a1.077,1.077,0,0,0-1.528,0l-5.989,6.013v3.236H26.753Z"/><path class="cls-5" d="M25.674,16.941,20,11.239l-5.674,5.7V37.357H25.674Z"/><path class="cls-6" d="M19.649,23.883a.635.635,0,0,0,.7,0,8.937,8.937,0,0,0,2.791-2.716,2.02,2.02,0,0,0-1.448-3.155,1.721,1.721,0,0,0-1.435.721.321.321,0,0,1-.518,0,1.721,1.721,0,0,0-1.435-.721,2.02,2.02,0,0,0-1.448,3.155A8.937,8.937,0,0,0,19.649,23.883Z"/><path class="cls-7" d="M20,29.963h0a2.7,2.7,0,0,1,2.7,2.7v4.7a0,0,0,0,1,0,0H17.3a0,0,0,0,1,0,0v-4.7A2.7,2.7,0,0,1,20,29.963Z"/></svg>
